wp-content/plugins/one-click-demo-import/assets/images/success.svg

<svg width="160" height="124" viewBox="0 0 160 124" fill="none" xmlns="http://www.w3.org/2000/svg">
<path d="M78 0C43.75 0 16 27.75 16 62C16 96.25 43.75 124 78 124C112.25 124 140 96.25 140 62C140 27.75 112.25 0 78 0ZM132 62C132 91.75 107.75 116 78 116C48.25 116 24 92 24 62C24 32.5 48 8 78 8C107.5 8 132 32.25 132 62Z" fill="#64B450"/>
<path d="M78.0073 67.9142L55.4215 45.0931L55.3399 45.0107L55.2494 44.9383C54.2296 44.1224 52.9623 43.75 51.7812 43.75C50.6146 43.75 49.3023 44.1193 48.3358 45.0858L41.0858 52.3358C40.1193 53.3023 39.75 54.6146 39.75 55.7812C39.75 56.9623 40.1224 58.2296 40.9383 59.2494L41.0098 59.3388L41.0911 59.4195L74.5858 92.6642C74.5868 92.6652 74.5878 92.6663 74.5888 92.6673C75.5522 93.6292 76.7967 94.1875 78.125 94.1875C79.4547 94.1875 80.7005 93.628 81.6642 92.6642L156.664 17.6642C157.631 16.6977 158 15.3854 158 14.2188C158 13.0377 157.628 11.7704 156.812 10.7506L156.732 10.6504L156.639 10.5612L149.469 3.63831C147.572 1.41002 144.237 1.68448 142.336 3.58579L78.0073 67.9142Z" fill="#64B450" stroke="white" stroke-width="4"/>
</svg>

<svg xmlns="http://www.w3.org/2000/svg" width="160" height="124" fill="none"><path fill="#64B450" d="M78 0C43.75 0 16 27.75 16 62s27.75 62 62 62 62-27.75 62-62S112.25 0 78 0m54 62c0 29.75-24.25 54-54 54S24 92 24 62C24 32.5 48 8 78 8c29.5 0 54 24.25 54 54"/><path fill="#64B450" stroke="#fff" stroke-width="4" d="m78.007 67.914-22.586-22.82-.081-.083-.09-.073c-1.02-.816-2.288-1.188-3.469-1.188-1.166 0-2.479.37-3.445 1.336l-7.25 7.25c-.967.966-1.336 2.279-1.336 3.445 0 1.181.372 2.449 1.188 3.468l.072.09.081.08 33.495 33.245.003.003c.963.962 2.208 1.52 3.536 1.52 1.33 0 2.576-.559 3.54-1.523l74.999-75c.967-.966 1.336-2.279 1.336-3.445 0-1.181-.372-2.449-1.188-3.468l-.08-.1-.093-.09-7.17-6.923c-1.897-2.228-5.232-1.954-7.133-.052z"/></svg>
